!!!OTL: SAGT MIR AN WAS SCHMUNZELT IHR
!!!ARE: Europa, Mitteleuropa, Deutschland
!!!SCT: F0167
!!!YEM: Copyright 1995, estate of Helmut Schaffrath.
**kern
*ICvox
*Ivox
*M4/4
*k[f#c#]
*D:
=1
{4d
4d
4c#
4c#
=2
4B
4B
2A}
=3
{4B
4A
4B
4A
=4
4G
4F#
2E}
=5
{4F#
4F#
4E
4E
=6
4F#
4F#
4E
4E}
=7
{4F#
4F#
4E
4E
=8
4F#
4F#
4E
4E}
=9
{4F#
4E
4F#
4G
=10
2A
4d
4r}
=11
{8G
8F#
8E
8D
4A
4A
=12
2D
2r}
==
!!!AGN: Tanz - Lied, Reigen
!!!ONB: ESAC (Essen Associative Code) Database: FINK
!!!AMT: simple quadruple
!!!AIN: vox
!!!EED: Helmut Schaffrath
!!!EEV: 1.0
*-
